svgs/duotone/boxes-stacked.svg

<svg xmlns="http://www.w3.org/2000/svg" viewBox="0 0 576 512"><!--! Font Awesome Pro 6.6.0 by @fontawesome - https://fontawesome.com License - https://fontawesome.com/license (Commercial License) Copyright 2024 Fonticons, Inc. --><defs><style>.fa-secondary{opacity:.4}</style></defs><path class="fa-secondary" d="M104 256l80 0 0 80c0 8.8-7.2 16-16 16l-48 0c-8.8 0-16-7.2-16-16l0-80zM248 16c0-8.8 7.2-16 16-16l48 0c8.8 0 16 7.2 16 16l0 64c0 8.8-7.2 16-16 16l-48 0c-8.8 0-16-7.2-16-16l0-64zM392 256l80 0 0 80c0 8.8-7.2 16-16 16l-48 0c-8.8 0-16-7.2-16-16l0-80z"/><path class="fa-primary" d="M248 0L208 0c-26.5 0-48 21.5-48 48l0 112c0 35.3 28.7 64 64 64l128 0c35.3 0 64-28.7 64-64l0-112c0-26.5-21.5-48-48-48L328 0l0 80c0 8.8-7.2 16-16 16l-48 0c-8.8 0-16-7.2-16-16l0-80zM64 256c-35.3 0-64 28.7-64 64L0 448c0 35.3 28.7 64 64 64l160 0c35.3 0 64-28.7 64-64l0-128c0-35.3-28.7-64-64-64l-40 0 0 80c0 8.8-7.2 16-16 16l-48 0c-8.8 0-16-7.2-16-16l0-80-40 0zM352 512l160 0c35.3 0 64-28.7 64-64l0-128c0-35.3-28.7-64-64-64l-40 0 0 80c0 8.8-7.2 16-16 16l-48 0c-8.8 0-16-7.2-16-16l0-80-40 0c-15 0-28.8 5.1-39.7 13.8c4.9 10.4 7.7 22 7.7 34.2l0 160c0 12.2-2.8 23.8-7.7 34.2C323.2 506.9 337 512 352 512z"/></svg>

<svg xmlns="http://www.w3.org/2000/svg" viewBox="0 0 576 512"><!--! Font Awesome Pro 6.4.0 by @fontawesome - https://fontawesome.com License - https://fontawesome.com/license (Commercial License) Copyright 2023 Fonticons, Inc. --><defs><style>.fa-secondary{opacity:.4}</style></defs><path class="fa-primary" d="M248 0H208c-26.5 0-48 21.5-48 48V160c0 35.3 28.7 64 64 64H352c35.3 0 64-28.7 64-64V48c0-26.5-21.5-48-48-48H328V80c0 8.8-7.2 16-16 16H264c-8.8 0-16-7.2-16-16V0zM64 256c-35.3 0-64 28.7-64 64V448c0 35.3 28.7 64 64 64H224c35.3 0 64-28.7 64-64V320c0-35.3-28.7-64-64-64H184v80c0 8.8-7.2 16-16 16H120c-8.8 0-16-7.2-16-16V256H64zM352 512H512c35.3 0 64-28.7 64-64V320c0-35.3-28.7-64-64-64H472v80c0 8.8-7.2 16-16 16H408c-8.8 0-16-7.2-16-16V256H352c-15 0-28.8 5.1-39.7 13.8c4.9 10.4 7.7 22 7.7 34.2V464c0 12.2-2.8 23.8-7.7 34.2C323.2 506.9 337 512 352 512z"/><path class="fa-secondary" d="M248 80V16c0-8.8 7.2-16 16-16h48c8.8 0 16 7.2 16 16V80c0 8.8-7.2 16-16 16H264c-8.8 0-16-7.2-16-16zM104 336V256h80v80c0 8.8-7.2 16-16 16H120c-8.8 0-16-7.2-16-16zm288-80h80v80c0 8.8-7.2 16-16 16H408c-8.8 0-16-7.2-16-16V256z"/></svg>
